X: 2
T: the Duke of Gordon's Strathspey #1
C: William Marshall
M: C
L: 1/8
S: Marshall's 1822 Collection
Z: AK/Fiddler's Companion
K: D
B/c/ |\
"D"d>D F>D AD FD | "G"B>D "D"F>D "Em"E/E/E "A7"EB/c/ |\
"D"d>D F>D AD FD | "A7"d>f e>f "D"d/d/d d :|
f/g/ |\
"D"a>f d<f Ad FD | "G"GB "D"FA "Em"E/E/E "A7"Eg |\
"D"a/g/f/e/ d>f A<d F>D | "G"G>B "A7"A>c "D"d/d/d d ||
f/g/ |\
"D"a>f d<f A>d F>A | "G"G>B "D"F>A "Em"E>F "A7"G<E |\
"D"D>F "A7"E>G "D"F>A "G"G>B | "D"A>F "A7"G>E "D"D/D/D D |]


%%sep 3 1 500

